!!!OTL: J&auml;ger und Graserin (2-62) S. 191
!!!id: P0935
**kern
*clefG2
*k[f#]
*G:
{8d
=1
8.d
16g
8g
8.g
16a
8b
=2
4a
8g
4d
8a
=3
4d}
4.r
=4
{8d
=5
8.d
16b
8b
4b
8b
=6
4a
8b
4dd}
=7
{16cc
16b
=8
8a
8a
8a
8a
8a
8d
=9
4g
8a
4b}
8r
=10
{8.g
16f#
8e
4cc
8f#
=11
2g}
8r
==
*-
!!!minrhy: 16
!!!meters: 6/8 ]  ZZ[4
!!!cut: J&auml;ger und Graserin (2-62) S. 191
!!!reg: Lothringen
!!!trd: PINCK, Louis: Verklingende Weisen, Bd 2, Metz 1928
!!!rhy1: X_  X_.XX_X_.XX_  X__X_X__X_  X__0__.
!!!rhy2: X_  X_.XX_X__X_  X__X_X__
!!!key: P0935  16  G 6/8 ]  ZZ[4
!!!mod: HEPTATONIK IONISCH]  AMBITUS[8
!!!kad: -5531
!!!akz: -512-5-5_-5325_2213_1411_
!!!fot: 'a__b__c__as"
!!!for: 'a__b__c__bw_
!!!fok: '^__/__Vd_S__
!! PHRAS[VORWIEGEND AUFTAKTIG]
!!!fkt: J&auml;gerlied
!! LOTH VKL
!! PR[10] 2K[10] 2G[17] 3K[3] 3G[7] 4A[7] 4Ü[0] 5A[0] 6K[0] 6G[0]
!! 7K[0] 7G[0] 8A[0] MEHR[0] SI[45] ABS[29] SR[28] SP[17]
!! ST[6] 2k[10] 2g[28] 3k[0] 3g[0] 4d[7] 4ü[0] 5d[0] 6k[0] 6g[0]
!! 7k[0] 7g[0] 8d[0] mehr[0] si[45] dm[0] sr[38] sp[7]
!! 1F[58] 2F[16] 3F[0] 4F[0] LF[0] 2P[6] 3P[0] 4P[0] TRI[0] DF[4] AB[31]
!! TF[0] U3K[0] U3[0] U4[0] U4Ü[0] U5[10] U6K[0] U6[7] U7K[0] U7[13]
!! N1[27] N2K[0] N2[17] N3K[0] N3[13] N4[3] N4Ü[0] N5[10] N6K[0] N6[0]
!!!n7k: 0] N7[0] O1[0] O2K[0] O2[0] O3K[0] O3[0] HÖ[0
!!!RNB: symbol: &auml;      = a umlaut  (UTF-8: Å„)
